packages/core/src/svgs/sero.svg

<svg width="24" height="24" viewBox="0 0 24 24" fill="none" xmlns="http://www.w3.org/2000/svg">
<g clip-path="url(#clip0_31_18515)">
<path d="M0 0H24V24H0V0Z" fill="url(#paint0_linear_31_18515)"/>
<path fill-rule="evenodd" clip-rule="evenodd" d="M12 18.8574C15.7873 18.8574 18.8571 15.7875 18.8571 12.0002C18.8571 8.21292 15.7873 5.14307 12 5.14307C8.21268 5.14307 5.14282 8.21292 5.14282 12.0002C5.14282 15.7875 8.21268 18.8574 12 18.8574ZM17.7145 13.8336C17.9042 13.241 18.0005 12.6225 18 12.0002C18 8.6865 15.3137 6.00021 12 6.00021C10.5693 5.99815 9.18531 6.5094 8.09954 7.44107L8.13682 7.41964C7.79739 7.65535 7.14039 8.51335 7.22911 10.0549C7.31739 11.5961 8.20282 12.2874 8.86796 12.7344L9.13025 12.9109C10.7503 13.9961 12.4778 15.1536 11.9905 16.1454C11.9464 15.8719 11.7025 15.2638 11.0824 15.0156C10.4623 14.7675 8.99311 13.9228 8.33611 13.5319C7.56854 13.0815 6.07754 11.8219 6.25454 10.3871C6.26439 10.3082 6.27597 10.2315 6.28882 10.1561C6.09685 10.7519 5.99938 11.3742 5.99997 12.0002C5.99997 15.3139 8.68625 18.0002 12 18.0002C13.7974 18.0002 15.4097 17.2099 16.5094 15.9581C16.7297 15.5942 17.0987 14.6591 16.9465 13.5786C16.7515 12.1892 15.297 10.4526 13.1263 9.71464C13.9513 9.86635 15.87 10.5306 16.9465 11.9719C17.4188 12.6045 17.6383 13.2538 17.7145 13.8336ZM14.559 9.51921L15.1234 9.32378L14.7763 7.10978C14.1394 6.7695 12.4748 6.24578 10.9123 6.87107C8.95839 7.65235 8.70339 9.23807 8.78997 10.1068C8.87697 10.9746 9.15382 11.5164 9.84854 11.9719C10.404 12.3366 11.7878 13.1514 12.4101 13.5135C12.8151 13.7595 13.6084 14.4469 13.5385 15.2282C13.452 16.2054 13.092 16.7839 11.9974 16.8782C11.2375 16.9429 9.82668 16.0532 9.17568 14.3381L8.51954 14.4409L8.76425 16.6108C9.18211 16.9986 10.4134 17.7422 11.9974 17.6111C13.9778 17.4469 15.6 16.2915 15.6 14.4409C15.6 12.9606 14.6314 12.0795 14.1471 11.8245L11.4244 10.2572C10.986 9.98121 10.002 8.89521 10.9761 7.80707C11.9875 6.67735 13.8325 7.89707 14.049 8.40792C14.2101 8.78234 14.3802 9.15288 14.559 9.51921Z" fill="white"/>
</g>
<defs>
<linearGradient id="paint0_linear_31_18515" x1="4.46486" y1="4.16229" x2="29.2059" y2="32.5787" gradientUnits="userSpaceOnUse">
<stop stop-color="#1A1E21"/>
<stop offset="1" stop-color="#06060A"/>
</linearGradient>
<clipPath id="clip0_31_18515">
<rect width="24" height="24" fill="white"/>
</clipPath>
</defs>
</svg>

<svg xmlns="http://www.w3.org/2000/svg" width="24" height="24" fill="none" viewBox="0 0 24 24"><g clip-path="url(#a)"><path fill="url(#b)" d="M0 0h24v24H0z"/><path fill="#fff" fill-rule="evenodd" d="M12 18.857a6.857 6.857 0 1 0 0-13.713 6.857 6.857 0 0 0 0 13.713m5.715-5.023A6 6 0 0 0 8.1 7.44l.037-.021c-.34.235-.997 1.093-.908 2.635s.974 2.232 1.639 2.68l.262.176c1.62 1.085 3.348 2.243 2.86 3.234-.044-.273-.287-.881-.908-1.13-.62-.248-2.089-1.092-2.746-1.483-.767-.45-2.258-1.71-2.081-3.145q.015-.118.034-.23a6 6 0 0 0 10.22 5.802c.22-.365.59-1.3.438-2.38-.195-1.39-1.65-3.126-3.82-3.864.824.151 2.743.816 3.82 2.257a3.95 3.95 0 0 1 .768 1.862m-3.156-4.315.564-.195-.347-2.214c-.637-.34-2.301-.864-3.864-.239-1.954.781-2.209 2.367-2.122 3.236.087.868.364 1.41 1.059 1.865.555.365 1.939 1.18 2.561 1.542.405.245 1.198.933 1.129 1.714-.087.977-.447 1.556-1.542 1.65-.76.065-2.17-.825-2.821-2.54l-.656.103.244 2.17c.418.388 1.65 1.131 3.233 1 1.98-.164 3.603-1.32 3.603-3.17 0-1.48-.969-2.362-1.453-2.617l-2.723-1.567c-.438-.276-1.422-1.362-.448-2.45 1.011-1.13 2.856.09 3.073.6q.242.563.51 1.112" clip-rule="evenodd"/></g><defs><linearGradient id="b" x1="4.465" x2="29.206" y1="4.162" y2="32.579" gradientUnits="userSpaceOnUse"><stop stop-color="#1A1E21"/><stop offset="1" stop-color="#06060A"/></linearGradient><clipPath id="a"><path fill="#fff" d="M0 0h24v24H0z"/></clipPath></defs></svg>
